X:1
T:Banks (of the River)
T:Banks (of the River)
T:Mrs. Taft's Hornpipe
T:Parazotti
C:Parazotti
L:1/8
M:4/4
K:Eb
V:1 treble 
V:1
|: (3(.B,/.C/.D/ | E) G2 (3(.B/.G/.E/ D) F2 (3(.A/.F/.D/ | %2
 A,) c2 (d/e/) (=A/B/).c/.B/ ._A/.G/.F/.E/ | G, B2 c A, c2 (d/e/) | %4
 (D/E/).F/.G/ .A/.F/.D/.E/ EGE ::{a} g/>^f/ | g [G,E] [G,E] (3(g/b/g/) f D D (3(f/g/f/) | %7
 e c2 (f/e/) (d/c/)B/=A/{A} B{=e}f | (D/B/)f/B/ (D/B/)f/B/ (E/B/)g/B/ (E/B/)g/B/ | %9
 (=A/B/)c/d/ (e/c/)A/c/ (B/A/)B/c/ (B/_A/)G/F/ | ([G,E]/G/)B/G/ (e/G/)F/E/ (D/F/)B/F/ (d/F/)E/D/ | %11
 (C/E/)A/E/ (c/B/)A/G/ (F/G/)F/E/ D/C/B,/A,/ | (G,/E/)B/E/ (G,/E/)B/E/ (A,/E/)c/E/ (A,/E/)c/E/ | %13
 (D/E/)F/G/ A/F/D/F/ EGE :| %14

